Source/WebInspectorUI/UserInterface/Images/gtk/Undock.svg

<?xml version="1.0" encoding="UTF-8" standalone="no"?>
<!-- Created with Inkscape (http://www.inkscape.org/) -->

<svg
   xmlns:dc="http://purl.org/dc/elements/1.1/"
   xmlns:cc="http://creativecommons.org/ns#"
   xmlns:rdf="http://www.w3.org/1999/02/22-rdf-syntax-ns#"
   xmlns:svg="http://www.w3.org/2000/svg"
   xmlns="http://www.w3.org/2000/svg"
   version="1.1"
   width="16"
   height="14"
   id="svg3020">
  <defs
     id="defs3022" />
  <metadata
     id="metadata3025">
    <rdf:RDF>
      <cc:Work
         rdf:about="">
        <dc:format>image/svg+xml</dc:format>
        <dc:type
           rdf:resource="http://purl.org/dc/dcmitype/StillImage" />
        <dc:title></dc:title>
        <cc:license
           rdf:resource="http://creativecommons.org/licenses/by-sa/3.0/" />
      </cc:Work>
      <cc:License
         rdf:about="http://creativecommons.org/licenses/by-sa/3.0/">
        <cc:permits
           rdf:resource="http://creativecommons.org/ns#Reproduction" />
        <cc:permits
           rdf:resource="http://creativecommons.org/ns#Distribution" />
        <cc:requires
           rdf:resource="http://creativecommons.org/ns#Notice" />
        <cc:requires
           rdf:resource="http://creativecommons.org/ns#Attribution" />
        <cc:permits
           rdf:resource="http://creativecommons.org/ns#DerivativeWorks" />
        <cc:requires
           rdf:resource="http://creativecommons.org/ns#ShareAlike" />
      </cc:License>
    </rdf:RDF>
  </metadata>
  <path
     d="M 1.90625,1.4375 C 1.415208,1.477185 0.997874,1.858309 1,2.28125 l 0,6.875 C 0.9985,9.183 0.9985,9.192 1,9.21875 L 1,10 1.84375,10 2,10 l 2.28125,0 0,-4.71875 c -0.00455,-0.9042021 0.7348429,-1.4956097 1.5625,-1.5625 l 0.03125,0 0.03125,0 c 0.039713,-0.0016 0.053172,-0.00107 0.09375,0 0.00812,2.133e-4 0.023307,-3.199e-4 0.03125,0 l 4.96875,0 0,-1.4375 C 10.999948,1.8327601 10.523008,1.4375448 10,1.4375 l -8,0 c -0.03119,-0.00126 -0.06256,-0.00126 -0.09375,0 z m 4,3 C 5.4152062,4.4771856 4.9978733,4.8583079 5,5.28125 l 0,6.875 C 4.99854,12.183 4.99854,12.192 5,12.21875 L 5,13 5.84375,13 6,13 14,13 14.09375,13 15,13 15,12.3125 c 0.0059,-0.05338 0.0059,-0.102871 0,-0.15625 l 0,-6.875 C 14.999947,4.8327589 14.523009,4.4375448 14,4.4375 l -8,0 c -0.031193,-0.00126 -0.062557,-0.00126 -0.09375,0 z m 0.53125,2.4375 7.125,0 0,4.6875 -7.125,0 0,-4.6875 z"
     id="rect13039-7-3"
     style="font-size:medium;font-style:normal;font-variant:normal;font-weight:normal;font-stretch:normal;text-indent:0;text-align:start;text-decoration:none;line-height:normal;letter-spacing:normal;word-spacing:normal;text-transform:none;direction:ltr;block-progression:tb;writing-mode:lr-tb;text-anchor:start;baseline-shift:baseline;color:#000000;fill-opacity:1;stroke:none;stroke-width:2;marker:none;visibility:visible;display:inline;overflow:visible;enable-background:new;font-family:Sans;-inkscape-font-specification:Sans" />
  <g
     transform="matrix(0.71389371,0,0,0.71389371,4.2872039,2.2915943)"
     id="layer1"
     style="stroke:#ffffff;stroke-opacity:1" />
</svg>

<?xml version="1.0" encoding="UTF-8"?>
<!-- Licensed under the Creative Commons Attribution-Share Alike 3.0 United States License (http://creativecommons.org/licenses/by-sa/3.0/) -->
<svg xmlns="http://www.w3.org/2000/svg" version="1.1" viewBox="0 0 16 14">
 <path d="m1.9062 1.4375c-0.491 0.0397-0.90833 0.4208-0.9062 0.8437v6.875c-0.0015 0.0268-0.0015 0.0358 0 0.0626v0.7812h0.8438 0.1562 2.2812v-4.7188c-0.0045-0.9042 0.7349-1.4956 1.5626-1.5624h0.03125 0.03125c0.039713-0.0016 0.053172-0.00107 0.09375 0 0.00812 0.0002133 0.023307-0.0003199 0.03125 0h4.9688v-1.4375c0-0.4485-0.477-0.8438-1-0.8438h-8c-0.03119-0.00126-0.06256-0.00126-0.09375 0zm4 3c-0.491 0.0397-0.9083 0.4208-0.9062 0.8437v6.875c-0.0015 0.027-0.0015 0.036 0 0.063v0.781h0.8438 0.1562 8 0.094 0.906v-0.688c0.0059-0.05338 0.0059-0.10287 0-0.15625v-6.875c0-0.4482-0.477-0.8435-1-0.8435h-8c-0.031193-0.00126-0.062557-0.00126-0.09375 0zm0.53125 2.4375h7.125v4.6875h-7.125v-4.6875z" class="filled"/>
</svg>
